X:1
T:Lady, if I through grief - Morley 
T:#
%%score [ 1 2 3 ]
L:1/8
Q:1/4=120
M:4/4
K:F
V:1 treble nm="Soprano" snm="S"
V:2 treble nm="Alto" snm="A"
V:3 bass nm="Bass" snm="B"
V:1
 z4 A2"^Lady, if I through grief" A=B | c2 A2 =B2 d2 | ^c2 d2 (d2 c2) | %3
w: La- dy if|I through grief and|your dis- dain\- *|
"^Thomas Morley\n(1557-1603)" d8 |[M:4/4] z4 A2 A=B | c2 A2 G4 | A2 A4 (GF) | E4 ^F4 | %8
w: ing,|La- dy, if|I through grief|and your dis\- *|dain- ing,|
 A2 AA B2 A2 | c2 c2 A2 A2 | G2 F2 E4 | ^F4 z2 d2 | d2 d2 c2 C2 | E2 F2 G2 G2 | A2 A2 G3 F | %15
w: Judg'd be to live in|hell e- ter- nal-|ly re- main-|ing, ad-|judg- ed be to|live in hell, in|hell e- ter- nal-|
 E2 D2 E4 | ^F8 | z8 | z2 d2 d2 d2 | A3 B c2 c2 | G3 A B2 B2 | FEFG A2 A2 | GFGA G2 F2 | E4 E4 | %24
w: ly re- main-|ing,||Of those my|burn- ing flames, my|burn- ing flames well|shall I rest con- tent, well|shall I rest con- tent, con-|tent- ed.|
 z8 | z8 | B8- | B4 A4 | G4 F4 | E6 E2 | D8 | z8 | z4 d4- | d4 c4 | B4 G4 | B4 A4 | G6 G2 | F4 E4 | %38
w: ||O|* but|you I|wail, I|wail,||O|* but|you I|wail, who|there must|be tor-|
 D8 | ^C8 | z2 A2 A3 A | F2 F2 B4 |[M:3/4] A2 A3 A | G4 F2 |[M:3/2] E4 D4 z4 |[M:4/4] z8 | %46
w: men-|ted.|For when I|shall be- hold|you, when I|shall be-|hold you,||
 z2 d2 d2 d2 | cBAB c2 c2 |[M:4/4] B2 G2 B4 | A2 A2 A2 A2 | GFEF G2 G2 | F2 D2 F4 | E8 | z8 | %54
w: your eyes a-|lone, a- lone, your eyes will|so de- light|me, your eyes a-|lone, a- lone, your eyes will|so de- light|me,||
 z2 A2 A2 A2 | GFEF G2 F2 | E4 A4 | (A2 ^G^F G4) | A2 A2 A2 A2 | G4 z2 G2 | G2 F2 E4 | ^F8 |: z8 | %63
w: your eyes a-|lone, a- lone, your eyes will|so de-|light * * *|me, That no great|pain can|once af- fright|me.||
 B2 BB A4 | G4 (FGAB) | c2 A2 G2 A2 | B2 A2 (A2 G2) | A4 z2 A2- | AE F2 E2 D2 | ^C2 D2 E4 | %70
w: But this, a- las,|O would * * *|* have killed me,|do not doubt *|you, there|* to have been a-|lone with- out|
 ^C2 A3 E F2 | E2 D2 ^C2 D2 | (E2 D4 ^C2) | D8 :| %74
w: you, there to have|been a- lone with-|out * *|you.|
V:2
 D2 DE F2 D2 | A2 A2 G2 F2 | E2 D2 E4 | D4 D2 DE |[M:4/4] F2 D2 C2 F2 | E2 F2 F2 E2 | %6
w: La- dy, if I through|grief, through grief and|your dis- dain-|ing, La- dy, if|I through grief, if|I, if I through|
 F2 F2 F2 (ED) | ^C4 D4 | F2 FE D2 F2 | E2 E2 F2 F2 | E2 D2 ^C4 | D4 z2 D2 | F3 G A2 A2 | %13
w: grief and your dis\- *|dain- ing,|Judg'd be to live in|hell e- ter- nal-|ly re- main-|ing, ad-|judg- ed be to|
 G2 F2 F2 E2 | F2 F2 E2 D2 | ^C2 D2 (D2 C2) | D4 z2 A2 | A2 A2 E3 F | G2 G2 D3 E | F2 F2 C3 D | %20
w: live, to live in|hell e- ter- nal-|ly re- main\- *|ing, Of|those my burn- ing|flames, my burn- ing|flames, my burn- ing|
 (EDEF G2) G2 | DCDE F2 F2 | EDEF E2 D2 | ^C4 C4 | z8 | F8 | E4 D4- | D4 C4 | B,2 (C2 D4- | %29
w: flames * * * * well|shall I rest con- tent, well|shall I rest con- tent, con-|tent- ed.||O|but you|* I|wail, a\- *|
 D4 ^C4) | D4 F4- | F4 E4 | D4 G4- | G2 F2 F4- | F4 E4 | F4 E2 D2- | D2 (^C=B, C4) | D4 A,4- | %38
w: |las, O|* but|you, you|* I wail,|* I|wail, who there|* must * *|be tor\-|
 A,4 G,4 | A,2 E2 E3 E | C2 C2 F4 | DE F4 E2 |[M:3/4] F2 F3 F | E3 E D2 |[M:3/2] ^C4 D2 F2 F2 F2 | %45
w: * men-|ted. For when I|shall be- hold,|when I shall be-|hold, when I|shall but be-|hold you, your eyes a-|
[M:4/4] EDCD E2 E2 | D2 G2 F2 D2 | A2 E4 F2 |[M:4/4] G2 G2 G2 G2 | FEDE F2 F2 | E2 C2 E4 | %51
w: lone, a- lone, your eyes a-|lone, your eyes will|so de- light|me, your eyes a-|lone, a- lone, your eyes a-|lone will so|
 (D4 A,2) (D2- | D2 ^C=B, C4) | D2 D2 D2 E2 | F2 F2 F2 F2 | EFGF E2 D2 | ^C4 =C4 | =B,8 | %58
w: de\- * light||me, your eyes, La-|dy, your eyes, your|eyes a- lone will so de-|light, de-|light|
 ^C2 F2 F2 F2 | E4 D4 | ^C2 D2 (D2 C2) | D8 |: D2 DD =C2 C2 | B,CDE F2 F2 | E2 E2 D4 | %65
w: me, That no great|pain can|once af- fright *|me.|But this, a- las, would,|O but this, a- las, would|quite have killed|
 C2 F2 E2 F2 | D2 F3 E D2 | ^C8 | z2 A3 E F2 | E2 D2 ^C2 D2 | E4 ^C2 A2- | AE F2 E2 D2 | %72
w: me doubt not, O|no, do not doubt|you,|there to have|been a- lone with-|out you, there|* to have been a-|
 ^C2 D2 E4 | ^F8 :| %74
w: lone with- out|you.|
V:3
 z8 | z8 | z8 | z8 |[M:4/4] D,2 D,E, F,2 D,2 | C,4 C,4 | F,2 D,2 F,2 G,2 | A,4 D,4 | D2 DC B,2 D2 | %9
w: ||||La- dy if I through|grief, through|grief and your dis-|dain- ing,|Judg'd be to live in|
 C2 C2 F,2 F,2 | G,2 D,2 A,4 | D,4 z2 B,,2 | B,,C,D,E, F,G,A,B, | C2 A,2 C2 C2 | F,2 F,2 G,2 G,2 | %15
w: hell e- ter- nal-|ly re- main-|ing, ad-|judg- ed be, a- las, to live in|hell, to live in|hell e- ter- nal-|
 A,2 B,2 A,4 | D,2 D2 D2 D2 | A,3 B, C2 C2 | G,3 A, B,2 B,2 | F,3 G, A,3 B, | C2 C2 G,F,G,A, | %21
w: ly re- main-|ing, Of those my|burn- ing flames, my|burn- ing flames, of|those my burn- ing|flames, well shall I rest con-|
 B,2 B,2 F,G,A,B, | C2 (C,4 D,2) | A,4 A,4 | B,8- | B,4 A,4 | G,8 | F,8 | G,8 | A,8 | D,4 D4- | %31
w: tent, well shall I rest con-|tent, con\- *|tent- ed.|O|* but|you|I|grieve|and|wail, O|
 D4 C4 | B,4 G,4 | B,4 A,4 | G,4 G,4 | D,4 F,4 | E,8 | (D,4 C,4) | B,,8 | A,,4 z2 A,2 | %40
w: * but|you I|wail, I|wail, who|there must|be|tor\- *|ment-|ed. For|
 A,3 A, F,2 F,2 | B,4 G,4 |[M:3/4] F,2 F,3 F, | C,4 D,2 |[M:3/2] A,4 D,2 D2 D2 D2 | %45
w: when I shall be-|hold you,|for when I|shall be-|hold you, your eyes a-|
[M:4/4] CB,A,B, C2 C2 | B,2 G,2 B,4 | F,2 A,2 A,2 A,2 |[M:4/4] G,F,E,F, G,2 G,2 | D,2 F,2 F,2 F,2 | %50
w: lone, a- lone, your eyes will|so de- light|me, your eyes a-|lone, a- lone your eyes, your|eyes will so de-|
 C,4 C,2 C,2 | D,8 | A,,2 A,2 A,2 A,2 | B,A,G,A, B,2 G,2 | F,2 F,2 F,2 F,2 | CA,CD C2 D2 | %56
w: light me, de-|light|me, your eyes a-|lone, a- lone, your eyes, La-|dy, your eyes a-|lone, a- lone, your eyes will|
 A,4 A,4 | E,8 | A,2 F,2 F,G,A,B, | C4 B,2 B,2 | A,8 | D,8 |: B,2 B,B, A,4 | G,4 (F,G,A,B, | %64
w: so de-|light|me, That once I know no|pain can af-|fright|me.|But this, a- las,|O would * * *|
 C2) C,2 (D,E,F,G,) | A,2 F,2 C2 A,2 | G,2 A,2 B,4 | A,2 A,3 E, F,2 | E,2 D,2 ^C,2 D,2 | A,,8 | %70
w: * have killed * * *|* me ay, ay|do not doubt|you, there to have|been a- lone with-|out|
 A,,8 | A,,8 | A,,8 | D,8 :| %74
w: you,|with-|out|you.|

